src/assets/outline/HierarchySquare2.svg

<svg width="24" height="24" viewBox="0 0 24 24"  xmlns="http://www.w3.org/2000/svg">
<path d="M7.7998 15.1502C7.3898 15.1502 7.0498 14.8102 7.0498 14.4002V10.2002C7.0498 9.7902 7.3898 9.4502 7.7998 9.4502C8.2098 9.4502 8.5498 9.7902 8.5498 10.2002V14.4002C8.5498 14.8102 8.2098 15.1502 7.7998 15.1502Z" />
<path d="M7.95001 10.65C6.46001 10.65 5.25 9.44001 5.25 7.95001C5.25 6.46001 6.46001 5.25 7.95001 5.25C9.44001 5.25 10.65 6.46001 10.65 7.95001C10.65 9.44001 9.44001 10.65 7.95001 10.65ZM7.95001 6.75C7.29001 6.75 6.75 7.29001 6.75 7.95001C6.75 8.61001 7.29001 9.14999 7.95001 9.14999C8.61001 9.14999 9.15002 8.61001 9.15002 7.95001C9.15002 7.29001 8.61001 6.75 7.95001 6.75Z" />
<path d="M7.79999 18.7504C6.38999 18.7504 5.25 17.6104 5.25 16.2004C5.25 14.7904 6.38999 13.6504 7.79999 13.6504C9.20999 13.6504 10.35 14.7904 10.35 16.2004C10.35 17.6104 9.20999 18.7504 7.79999 18.7504ZM7.79999 15.1504C7.21999 15.1504 6.75 15.6204 6.75 16.2004C6.75 16.7804 7.21999 17.2504 7.79999 17.2504C8.37999 17.2504 8.84998 16.7804 8.84998 16.2004C8.84998 15.6204 8.37999 15.1504 7.79999 15.1504Z" />
<path d="M16.1999 18.7504C14.7899 18.7504 13.6499 17.6104 13.6499 16.2004C13.6499 14.7904 14.7899 13.6504 16.1999 13.6504C17.6099 13.6504 18.7499 14.7904 18.7499 16.2004C18.7499 17.6104 17.6099 18.7504 16.1999 18.7504ZM16.1999 15.1504C15.6199 15.1504 15.1499 15.6204 15.1499 16.2004C15.1499 16.7804 15.6199 17.2504 16.1999 17.2504C16.7799 17.2504 17.2499 16.7804 17.2499 16.2004C17.2499 15.6204 16.7799 15.1504 16.1999 15.1504Z" />
<path d="M15.7001 15.1695C15.3901 15.1695 15.1001 14.9795 14.9901 14.6695C14.5901 13.5295 13.5201 12.7695 12.3101 12.7695H12.3001L10.2401 12.7795H10.2301C8.78007 12.7795 7.51011 11.7995 7.15011 10.3995C7.05011 9.99947 7.29009 9.58946 7.69009 9.48946C8.08009 9.38946 8.50006 9.62947 8.60006 10.0295C8.79006 10.7695 9.46007 11.2895 10.2301 11.2895C10.2301 11.2895 10.2301 11.2895 10.2401 11.2895L12.3001 11.2795C12.3101 11.2795 12.3101 11.2795 12.3201 11.2795C14.1601 11.2795 15.8101 12.4495 16.4201 14.1895C16.5601 14.5795 16.3501 15.0095 15.9601 15.1495C15.8701 15.1595 15.7801 15.1695 15.7001 15.1695Z" />
<path d="M15 22.75H9C3.57 22.75 1.25 20.43 1.25 15V9C1.25 3.57 3.57 1.25 9 1.25H15C20.43 1.25 22.75 3.57 22.75 9V15C22.75 20.43 20.43 22.75 15 22.75ZM9 2.75C4.39 2.75 2.75 4.39 2.75 9V15C2.75 19.61 4.39 21.25 9 21.25H15C19.61 21.25 21.25 19.61 21.25 15V9C21.25 4.39 19.61 2.75 15 2.75H9Z" />
</svg>

<?xml version="1.0" encoding="UTF-8"?>
<svg width="24" height="24" viewBox="0 0 24 24" xmlns="http://www.w3.org/2000/svg">
 <path d="m7.7998 15.15c-0.41 0-0.75-0.34-0.75-0.75v-4.2c0-0.41 0.34-0.75 0.75-0.75s0.75 0.34 0.75 0.75v4.2c0 0.41-0.34 0.75-0.75 0.75z"/>
 <path d="m7.95 10.65c-1.49 0-2.7-1.21-2.7-2.7s1.21-2.7 2.7-2.7 2.7 1.21 2.7 2.7-1.21 2.7-2.7 2.7zm0-3.9c-0.66 0-1.2 0.54001-1.2 1.2s0.54001 1.2 1.2 1.2 1.2-0.53998 1.2-1.2-0.54001-1.2-1.2-1.2z"/>
 <path d="m7.8 18.75c-1.41 0-2.55-1.14-2.55-2.55s1.14-2.55 2.55-2.55 2.55 1.14 2.55 2.55-1.14 2.55-2.55 2.55zm0-3.6c-0.58 0-1.05 0.47-1.05 1.05s0.46999 1.05 1.05 1.05 1.05-0.47 1.05-1.05-0.46999-1.05-1.05-1.05z"/>
 <path d="m16.2 18.75c-1.41 0-2.55-1.14-2.55-2.55s1.14-2.55 2.55-2.55 2.55 1.14 2.55 2.55-1.14 2.55-2.55 2.55zm0-3.6c-0.58 0-1.05 0.47-1.05 1.05s0.47 1.05 1.05 1.05 1.05-0.47 1.05-1.05-0.47-1.05-1.05-1.05z"/>
 <path d="m15.7 15.17c-0.31 0-0.6-0.19-0.71-0.5-0.4-1.14-1.47-1.9-2.68-1.9h-0.01l-2.06 0.01h-0.01c-1.45 0-2.72-0.98-3.08-2.38-0.1-0.40003 0.13998-0.81004 0.53998-0.91004 0.39-0.1 0.80997 0.14001 0.90997 0.54004 0.19 0.74 0.86001 1.26 1.63 1.26h0.01l2.06-0.01h0.02c1.84 0 3.49 1.17 4.1 2.91 0.14 0.39-0.07 0.82-0.46 0.96-0.09 0.01-0.18 0.02-0.26 0.02z"/>
 <path d="m15 22.75h-6c-5.43 0-7.75-2.32-7.75-7.75v-6c0-5.43 2.32-7.75 7.75-7.75h6c5.43 0 7.75 2.32 7.75 7.75v6c0 5.43-2.32 7.75-7.75 7.75zm-6-20c-4.61 0-6.25 1.64-6.25 6.25v6c0 4.61 1.64 6.25 6.25 6.25h6c4.61 0 6.25-1.64 6.25-6.25v-6c0-4.61-1.64-6.25-6.25-6.25h-6z"/>
</svg>
